T: Turfahun Barndance
M: 12/8
L: 1/8
K: Gmix
|:B|d2 g e2 d BAB d2 B|A2 D ABc B2 A ABc|
d2 g e2 d BAB d2 B|AGA B2 A G3 G2 :|
|:g|^f2 d de^f gfg a2 g|^f2 d de^f e2 ^c A2 e|
^f2 d de^f g^fg a2 g|^fg^f e^fe d3 d2 :|
